resources/svg/snes-o.svg

<svg xmlns="http://www.w3.org/2000/svg" viewBox="0 0 15 15" fill="none"><path d="M3.5 7V10M2 8.5H5M11 8.5H12M11 6.5H12M9 8.5H10M9 6.5H10M1.5 3.5H13.5C14.0523 3.5 14.5 3.94772 14.5 4.5V10.5C14.5 11.0523 14.0523 11.5 13.5 11.5H1.5C0.947716 11.5 0.5 11.0523 0.5 10.5V4.5C0.5 3.94772 0.947715 3.5 1.5 3.5Z" stroke="black"/></svg>

<svg xmlns="http://www.w3.org/2000/svg" viewBox="0 0 15 15" fill="none"><path d="M3.5 7v3M2 8.5h3m6 0h1m-1-2h1m-3 2h1m-1-2h1m-8.5-3h12a1 1 0 011 1v6a1 1 0 01-1 1h-12a1 1 0 01-1-1v-6a1 1 0 011-1z" stroke="currentColor"/></svg>
